documentation/public/assets/images/input-01.svg

<svg width="672" height="159" viewBox="0 0 672 159" fill="none" xmlns="http://www.w3.org/2000/svg">
<rect width="672" height="159" fill="#F6F6F6"/>
<rect x="190" y="60.5" width="292" height="39" rx="3.5" fill="white"/>
<path d="M202.909 86V74.3636H209.932V75.6136H204.318V79.5455H209.568V80.7955H204.318V84.75H210.023V86H202.909ZM213.267 86.0909C212.987 86.0909 212.746 85.9905 212.545 85.7898C212.345 85.589 212.244 85.3485 212.244 85.0682C212.244 84.7879 212.345 84.5473 212.545 84.3466C212.746 84.1458 212.987 84.0455 213.267 84.0455C213.547 84.0455 213.788 84.1458 213.989 84.3466C214.189 84.5473 214.29 84.7879 214.29 85.0682C214.29 85.2538 214.242 85.4242 214.148 85.5795C214.057 85.7348 213.934 85.8598 213.778 85.9545C213.627 86.0455 213.456 86.0909 213.267 86.0909ZM220.219 89.4545C219.571 89.4545 219.014 89.3712 218.548 89.2045C218.082 89.0417 217.694 88.8258 217.384 88.5568C217.077 88.2917 216.832 88.0076 216.651 87.7045L217.719 86.9545C217.84 87.1136 217.993 87.2955 218.179 87.5C218.365 87.7083 218.618 87.8883 218.94 88.0398C219.266 88.1951 219.692 88.2727 220.219 88.2727C220.923 88.2727 221.505 88.1023 221.963 87.7614C222.421 87.4205 222.651 86.8864 222.651 86.1591V84.3864H222.537C222.438 84.5455 222.298 84.7424 222.116 84.9773C221.938 85.2083 221.681 85.4148 221.344 85.5966C221.01 85.7746 220.56 85.8636 219.991 85.8636C219.287 85.8636 218.654 85.697 218.094 85.3636C217.537 85.0303 217.096 84.5455 216.77 83.9091C216.448 83.2727 216.287 82.5 216.287 81.5909C216.287 80.697 216.444 79.9186 216.759 79.2557C217.073 78.589 217.51 78.0739 218.071 77.7102C218.632 77.3428 219.279 77.1591 220.014 77.1591C220.582 77.1591 221.033 77.2538 221.366 77.4432C221.704 77.6288 221.961 77.8409 222.139 78.0795C222.321 78.3144 222.461 78.5076 222.56 78.6591H222.696V77.2727H223.991V86.25C223.991 87 223.821 87.6098 223.48 88.0795C223.143 88.553 222.688 88.8996 222.116 89.1193C221.548 89.3428 220.916 89.4545 220.219 89.4545ZM220.173 84.6591C220.711 84.6591 221.166 84.536 221.537 84.2898C221.908 84.0436 222.19 83.6894 222.384 83.2273C222.577 82.7652 222.673 82.2121 222.673 81.5682C222.673 80.9394 222.579 80.3845 222.389 79.9034C222.2 79.4223 221.92 79.0455 221.548 78.7727C221.177 78.5 220.719 78.3636 220.173 78.3636C219.605 78.3636 219.132 78.5076 218.753 78.7955C218.378 79.0833 218.096 79.4697 217.906 79.9545C217.721 80.4394 217.628 80.9773 217.628 81.5682C217.628 82.1742 217.723 82.7102 217.912 83.1761C218.105 83.6383 218.389 84.0019 218.764 84.267C219.143 84.5284 219.613 84.6591 220.173 84.6591ZM227.423 86.0909C227.143 86.0909 226.902 85.9905 226.702 85.7898C226.501 85.589 226.401 85.3485 226.401 85.0682C226.401 84.7879 226.501 84.5473 226.702 84.3466C226.902 84.1458 227.143 84.0455 227.423 84.0455C227.704 84.0455 227.944 84.1458 228.145 84.3466C228.346 84.5473 228.446 84.7879 228.446 85.0682C228.446 85.2538 228.399 85.4242 228.304 85.5795C228.213 85.7348 228.09 85.8598 227.935 85.9545C227.783 86.0455 227.613 86.0909 227.423 86.0909ZM239.989 74.3636H241.398V82.6818C241.398 83.4242 241.261 84.0549 240.989 84.5739C240.716 85.0928 240.331 85.4867 239.835 85.7557C239.339 86.0246 238.754 86.1591 238.08 86.1591C237.443 86.1591 236.877 86.0436 236.381 85.8125C235.884 85.5777 235.494 85.2443 235.21 84.8125C234.926 84.3807 234.784 83.8674 234.784 83.2727H236.17C236.17 83.6023 236.252 83.8902 236.415 84.1364C236.581 84.3788 236.809 84.5682 237.097 84.7045C237.384 84.8409 237.712 84.9091 238.08 84.9091C238.485 84.9091 238.83 84.8239 239.114 84.6534C239.398 84.483 239.614 84.233 239.761 83.9034C239.913 83.5701 239.989 83.1629 239.989 82.6818V74.3636ZM249.54 82.4318V77.2727H250.881V86H249.54V84.5227H249.449C249.244 84.9659 248.926 85.3428 248.494 85.6534C248.063 85.9602 247.517 86.1136 246.858 86.1136C246.312 86.1136 245.828 85.9943 245.403 85.7557C244.979 85.5133 244.646 85.1496 244.403 84.6648C244.161 84.1761 244.04 83.5606 244.04 82.8182V77.2727H245.381V82.7273C245.381 83.3636 245.559 83.8712 245.915 84.25C246.275 84.6288 246.733 84.8182 247.29 84.8182C247.623 84.8182 247.962 84.733 248.307 84.5625C248.655 84.392 248.947 84.1307 249.182 83.7784C249.42 83.4261 249.54 82.9773 249.54 82.4318ZM254.678 74.3636V86H253.337V74.3636H254.678ZM260.793 86.1818C259.952 86.1818 259.226 85.9962 258.616 85.625C258.01 85.25 257.543 84.7273 257.213 84.0568C256.887 83.3826 256.724 82.5985 256.724 81.7045C256.724 80.8106 256.887 80.0227 257.213 79.3409C257.543 78.6553 258.001 78.1212 258.588 77.7386C259.179 77.3523 259.868 77.1591 260.656 77.1591C261.111 77.1591 261.56 77.2348 262.003 77.3864C262.446 77.5379 262.849 77.7841 263.213 78.125C263.577 78.4621 263.866 78.9091 264.082 79.4659C264.298 80.0227 264.406 80.7083 264.406 81.5227V82.0909H257.679V80.9318H263.043C263.043 80.4394 262.944 80 262.747 79.6136C262.554 79.2273 262.277 78.9223 261.918 78.6989C261.562 78.4754 261.141 78.3636 260.656 78.3636C260.122 78.3636 259.66 78.4962 259.27 78.7614C258.884 79.0227 258.586 79.3636 258.378 79.7841C258.17 80.2045 258.065 80.6553 258.065 81.1364V81.9091C258.065 82.5682 258.179 83.1269 258.406 83.5852C258.637 84.0398 258.957 84.3864 259.366 84.625C259.776 84.8598 260.251 84.9773 260.793 84.9773C261.145 84.9773 261.463 84.928 261.747 84.8295C262.035 84.7273 262.283 84.5758 262.491 84.375C262.7 84.1705 262.861 83.9167 262.974 83.6136L264.27 83.9773C264.134 84.4167 263.904 84.803 263.582 85.1364C263.26 85.4659 262.863 85.7235 262.389 85.9091C261.916 86.0909 261.384 86.1818 260.793 86.1818ZM272.628 79.2273L271.423 79.5682C271.348 79.3674 271.236 79.1723 271.088 78.983C270.944 78.7898 270.747 78.6307 270.497 78.5057C270.247 78.3807 269.927 78.3182 269.537 78.3182C269.003 78.3182 268.558 78.4413 268.202 78.6875C267.849 78.9299 267.673 79.2386 267.673 79.6136C267.673 79.947 267.795 80.2102 268.037 80.4034C268.279 80.5966 268.658 80.7576 269.173 80.8864L270.469 81.2045C271.249 81.3939 271.83 81.6837 272.213 82.0739C272.596 82.4602 272.787 82.9583 272.787 83.5682C272.787 84.0682 272.643 84.5152 272.355 84.9091C272.071 85.303 271.673 85.6136 271.162 85.8409C270.651 86.0682 270.056 86.1818 269.378 86.1818C268.488 86.1818 267.751 85.9886 267.168 85.6023C266.584 85.2159 266.215 84.6515 266.06 83.9091L267.332 83.5909C267.454 84.0606 267.683 84.4129 268.02 84.6477C268.361 84.8826 268.806 85 269.355 85C269.98 85 270.476 84.8674 270.844 84.6023C271.215 84.3333 271.401 84.0114 271.401 83.6364C271.401 83.3333 271.295 83.0795 271.082 82.875C270.87 82.6667 270.545 82.5114 270.105 82.4091L268.651 82.0682C267.851 81.8788 267.264 81.5852 266.889 81.1875C266.518 80.786 266.332 80.2841 266.332 79.6818C266.332 79.1894 266.471 78.7538 266.747 78.375C267.027 77.9962 267.408 77.6989 267.889 77.483C268.374 77.267 268.923 77.1591 269.537 77.1591C270.401 77.1591 271.079 77.3485 271.571 77.7273C272.067 78.1061 272.42 78.6061 272.628 79.2273Z" fill="#757575"/>
<rect x="190" y="60.5" width="292" height="39" rx="3.5" stroke="#545454"/>
<path d="M200.21 38.3636V50H198.335L192.852 42.0739H192.756V50H190.648V38.3636H192.534L198.011 46.2955H198.114V38.3636H200.21ZM204.928 50.1761C204.375 50.1761 203.876 50.0777 203.433 49.8807C202.994 49.6799 202.645 49.3845 202.388 48.9943C202.134 48.6042 202.007 48.1231 202.007 47.5511C202.007 47.0587 202.098 46.6515 202.28 46.3295C202.462 46.0076 202.71 45.75 203.024 45.5568C203.339 45.3636 203.693 45.2178 204.087 45.1193C204.484 45.017 204.895 44.9432 205.32 44.8977C205.831 44.8447 206.246 44.7973 206.564 44.7557C206.882 44.7102 207.113 44.642 207.257 44.5511C207.405 44.4564 207.479 44.3106 207.479 44.1136V44.0795C207.479 43.6515 207.352 43.3201 207.098 43.0852C206.844 42.8504 206.479 42.733 206.001 42.733C205.498 42.733 205.098 42.8428 204.803 43.0625C204.511 43.2822 204.314 43.5417 204.212 43.8409L202.291 43.5682C202.443 43.0379 202.693 42.5947 203.041 42.2386C203.39 41.8788 203.816 41.6098 204.32 41.4318C204.823 41.25 205.38 41.1591 205.99 41.1591C206.411 41.1591 206.829 41.2083 207.246 41.3068C207.662 41.4053 208.043 41.5682 208.388 41.7955C208.732 42.0189 209.009 42.3239 209.217 42.7102C209.429 43.0966 209.536 43.5795 209.536 44.1591V50H207.558V48.8011H207.49C207.365 49.0436 207.189 49.2708 206.962 49.483C206.738 49.6913 206.456 49.8598 206.115 49.9886C205.778 50.1136 205.382 50.1761 204.928 50.1761ZM205.462 48.6648C205.875 48.6648 206.232 48.5833 206.536 48.4205C206.839 48.2538 207.071 48.0341 207.234 47.7614C207.401 47.4886 207.484 47.1913 207.484 46.8693V45.8409C207.42 45.8939 207.31 45.9432 207.155 45.9886C207.003 46.0341 206.833 46.0739 206.643 46.108C206.454 46.142 206.267 46.1723 206.081 46.1989C205.895 46.2254 205.734 46.2481 205.598 46.267C205.291 46.3087 205.017 46.3769 204.774 46.4716C204.532 46.5663 204.34 46.6989 204.2 46.8693C204.06 47.036 203.99 47.2519 203.99 47.517C203.99 47.8958 204.128 48.1818 204.405 48.375C204.681 48.5682 205.034 48.6648 205.462 48.6648ZM211.604 50V41.2727H213.57V42.7557H213.672C213.854 42.2557 214.155 41.8655 214.575 41.5852C214.996 41.3011 215.498 41.1591 216.081 41.1591C216.672 41.1591 217.17 41.303 217.575 41.5909C217.984 41.875 218.272 42.2633 218.439 42.7557H218.53C218.723 42.2708 219.049 41.8845 219.507 41.5966C219.969 41.3049 220.517 41.1591 221.149 41.1591C221.952 41.1591 222.607 41.4129 223.115 41.9205C223.623 42.428 223.876 43.1686 223.876 44.142V50H221.814V44.4602C221.814 43.9186 221.67 43.5227 221.382 43.2727C221.094 43.0189 220.742 42.892 220.325 42.892C219.829 42.892 219.441 43.0473 219.161 43.358C218.884 43.6648 218.746 44.0644 218.746 44.5568V50H216.729V44.375C216.729 43.9242 216.592 43.5644 216.32 43.2955C216.051 43.0265 215.698 42.892 215.263 42.892C214.967 42.892 214.698 42.9678 214.456 43.1193C214.214 43.267 214.02 43.4773 213.876 43.75C213.732 44.0189 213.661 44.3333 213.661 44.6932V50H211.604ZM229.827 50.1705C228.952 50.1705 228.196 49.9886 227.56 49.625C226.927 49.2576 226.44 48.7386 226.099 48.0682C225.759 47.3939 225.588 46.6004 225.588 45.6875C225.588 44.7898 225.759 44.0019 226.099 43.3239C226.444 42.642 226.925 42.1117 227.543 41.733C228.16 41.3504 228.885 41.1591 229.719 41.1591C230.257 41.1591 230.764 41.2462 231.241 41.4205C231.723 41.5909 232.147 41.8561 232.514 42.2159C232.885 42.5758 233.177 43.0341 233.389 43.5909C233.601 44.1439 233.707 44.803 233.707 45.5682V46.1989H226.554V44.8125H231.736C231.732 44.4186 231.647 44.0682 231.48 43.7614C231.313 43.4508 231.08 43.2064 230.781 43.0284C230.486 42.8504 230.141 42.7614 229.747 42.7614C229.327 42.7614 228.957 42.8636 228.639 43.0682C228.321 43.2689 228.073 43.5341 227.895 43.8636C227.721 44.1894 227.632 44.5473 227.628 44.9375V46.1477C227.628 46.6553 227.721 47.0909 227.906 47.4545C228.092 47.8144 228.351 48.0909 228.685 48.2841C229.018 48.4735 229.408 48.5682 229.855 48.5682C230.154 48.5682 230.425 48.5265 230.668 48.4432C230.91 48.3561 231.12 48.2292 231.298 48.0625C231.476 47.8958 231.611 47.6894 231.702 47.4432L233.622 47.6591C233.501 48.1667 233.27 48.6098 232.929 48.9886C232.592 49.3636 232.16 49.6553 231.634 49.8636C231.107 50.0682 230.505 50.1705 229.827 50.1705Z" fill="#333333"/>
<path d="M242.153 44.9091L242.284 42.608L240.352 43.875L239.659 42.6705L241.722 41.6364L239.659 40.6023L240.352 39.3977L242.284 40.6648L242.153 38.3636H243.534L243.409 40.6648L245.341 39.3977L246.034 40.6023L243.966 41.6364L246.034 42.6705L245.341 43.875L243.409 42.608L243.534 44.9091H242.153Z" fill="#EE0505"/>
</svg>

<svg width="672" height="159" fill="none" xmlns="http://www.w3.org/2000/svg"><path fill="#F6F6F6" d="M0 0h672v159H0z"/><rect x="190" y="60.5" width="292" height="39" rx="3.5" fill="#fff"/><path d="M202.9 86V74.36h7.03v1.25h-5.61v3.94h5.25v1.25h-5.25v3.95h5.7V86h-7.11Zm10.37.1a.99.99 0 0 1-.73-.31.99.99 0 0 1-.3-.72c0-.28.1-.52.3-.72a1 1 0 0 1 .73-.3c.28 0 .52.1.72.3.2.2.3.44.3.72a1.06 1.06 0 0 1-.51.89.97.97 0 0 1-.51.13Zm6.95 3.35a4.9 4.9 0 0 1-1.67-.25 3.53 3.53 0 0 1-1.9-1.5l1.07-.75c.12.16.27.35.46.55.19.2.44.39.76.54a3 3 0 0 0 1.28.23c.7 0 1.28-.17 1.74-.5.46-.35.7-.88.7-1.61v-1.77h-.12c-.1.16-.24.35-.42.59-.18.23-.44.43-.78.62-.33.17-.78.26-1.35.26a3.5 3.5 0 0 1-3.22-1.95 5.09 5.09 0 0 1-.48-2.32c0-.9.15-1.67.47-2.33a3.46 3.46 0 0 1 3.26-2.1c.56 0 1.01.1 1.35.28.33.19.6.4.77.64.18.23.32.43.42.58h.14v-1.39h1.3v8.98c0 .75-.18 1.36-.52 1.83s-.8.82-1.36 1.04c-.57.22-1.2.33-1.9.33Zm-.05-4.8c.54 0 1-.11 1.37-.36.37-.25.65-.6.84-1.06.2-.46.3-1.02.3-1.66 0-.63-.1-1.19-.3-1.67a2.49 2.49 0 0 0-.83-1.13c-.37-.27-.83-.4-1.38-.4a2.28 2.28 0 0 0-2.26 1.58 4.5 4.5 0 0 0-.28 1.62c0 .6.1 1.14.28 1.6.2.47.48.83.85 1.1.38.26.85.39 1.41.39Zm7.25 1.44a.98.98 0 0 1-.72-.3.98.98 0 0 1-.3-.72c0-.28.1-.52.3-.72a1.02 1.02 0 0 1 1.75.72c0 .18-.05.35-.15.51-.09.15-.21.28-.37.37a.98.98 0 0 1-.5.14ZM240 74.36h1.4v8.32c0 .74-.13 1.37-.4 1.9-.27.51-.66.9-1.16 1.18-.5.26-1.08.4-1.75.4a4 4 0 0 1-1.7-.35 2.8 2.8 0 0 1-1.17-1 2.74 2.74 0 0 1-.43-1.54h1.39a1.5 1.5 0 0 0 .93 1.43c.28.14.61.2.98.2.4 0 .75-.08 1.03-.25.29-.17.5-.42.65-.75.15-.33.23-.74.23-1.22v-8.32Zm9.55 8.07v-5.16h1.34V86h-1.34v-1.48h-.1a2.7 2.7 0 0 1-2.58 1.59c-.55 0-1.03-.12-1.46-.35a2.62 2.62 0 0 1-1-1.1 4.15 4.15 0 0 1-.36-1.84v-5.55h1.34v5.46c0 .63.18 1.14.53 1.52.37.38.82.57 1.38.57a2.28 2.28 0 0 0 2.25-2.39Zm5.14-8.07V86h-1.34V74.36h1.34Zm6.11 11.82a3.74 3.74 0 0 1-3.58-2.13 5.34 5.34 0 0 1-.49-2.35c0-.89.17-1.68.5-2.36a3.7 3.7 0 0 1 3.44-2.18c.45 0 .9.07 1.34.23a3.34 3.34 0 0 1 2.08 2.08c.22.55.33 1.24.33 2.05v.57h-6.73v-1.16h5.36c0-.5-.1-.93-.3-1.32a2.23 2.23 0 0 0-2.08-1.25c-.54 0-1 .14-1.39.4-.39.26-.68.6-.9 1.02a3 3 0 0 0-.3 1.36v.77c0 .66.1 1.22.34 1.68.23.45.55.8.96 1.03.4.24.88.36 1.42.36.35 0 .67-.05.96-.15a1.94 1.94 0 0 0 1.22-1.22l1.3.37a2.99 2.99 0 0 1-1.89 1.93c-.46.18-1 .27-1.59.27Zm11.84-6.95-1.2.34a2.2 2.2 0 0 0-.34-.59 1.6 1.6 0 0 0-.6-.47 2.15 2.15 0 0 0-.95-.2c-.54 0-.98.13-1.34.38-.35.24-.53.55-.53.92 0 .34.13.6.37.8.24.19.62.35 1.13.48l1.3.31c.78.2 1.36.48 1.74.87.39.39.58.89.58 1.5 0 .5-.15.95-.44 1.34-.28.4-.68.7-1.19.93-.5.23-1.1.34-1.78.34-.9 0-1.63-.2-2.21-.58a2.57 2.57 0 0 1-1.11-1.7l1.27-.3c.12.46.35.81.69 1.05.34.23.79.35 1.34.35a2.5 2.5 0 0 0 1.48-.4c.38-.27.56-.59.56-.96 0-.3-.1-.56-.32-.77-.21-.2-.53-.36-.97-.46l-1.46-.34a3.47 3.47 0 0 1-1.76-.88c-.37-.4-.56-.9-.56-1.5 0-.5.14-.94.42-1.31.28-.38.66-.68 1.14-.9a4 4 0 0 1 1.65-.32c.86 0 1.54.19 2.03.57.5.38.85.88 1.06 1.5Z" fill="#757575"/><rect x="190" y="60.5" width="292" height="39" rx="3.5" stroke="#545454"/><path d="M200.21 38.36V50h-1.88l-5.48-7.93h-.1V50h-2.1V38.36h1.88l5.48 7.94h.1v-7.94h2.1Zm4.72 11.82c-.56 0-1.05-.1-1.5-.3-.44-.2-.78-.5-1.04-.89a2.59 2.59 0 0 1-.38-1.44 2.11 2.11 0 0 1 1.02-2c.3-.19.66-.33 1.06-.43.4-.1.8-.18 1.23-.22l1.24-.14c.32-.05.55-.12.7-.2.15-.1.22-.25.22-.45v-.03c0-.43-.13-.76-.38-1a1.6 1.6 0 0 0-1.1-.35c-.5 0-.9.11-1.2.33-.29.22-.49.48-.59.78l-1.92-.27a3.08 3.08 0 0 1 2.03-2.14 5.44 5.44 0 0 1 2.93-.13c.41.1.8.27 1.14.5.34.22.62.52.83.91.2.39.32.87.32 1.45V50h-1.98v-1.2h-.07a2.52 2.52 0 0 1-1.38 1.19c-.33.12-.73.19-1.18.19Zm.53-1.52c.41 0 .77-.08 1.08-.24a1.73 1.73 0 0 0 .94-1.56v-1.02a.96.96 0 0 1-.32.15l-.52.12a15.83 15.83 0 0 1-1.04.16c-.3.04-.58.1-.83.2-.24.1-.43.23-.57.4a.97.97 0 0 0-.21.65c0 .38.14.66.41.85.28.2.63.3 1.06.3ZM211.6 50v-8.73h1.97v1.49h.1c.18-.5.49-.9.9-1.17.43-.29.93-.43 1.51-.43.6 0 1.09.14 1.5.43.4.28.7.67.86 1.17h.09c.2-.49.52-.88.98-1.16.46-.3 1-.44 1.64-.44.8 0 1.46.25 1.97.76.5.5.76 1.25.76 2.22V50h-2.07v-5.54c0-.54-.14-.94-.43-1.19a1.54 1.54 0 0 0-1.06-.38c-.5 0-.88.16-1.16.47-.28.3-.41.7-.41 1.2V50h-2.02v-5.63c0-.45-.14-.8-.41-1.07-.27-.27-.62-.4-1.06-.4a1.54 1.54 0 0 0-1.38.85 1.9 1.9 0 0 0-.22.94V50h-2.06Zm18.23.17a4.5 4.5 0 0 1-2.27-.55 3.7 3.7 0 0 1-1.46-1.55 5.23 5.23 0 0 1-.51-2.38c0-.9.17-1.69.5-2.37a3.87 3.87 0 0 1 3.63-2.16c.54 0 1.04.09 1.52.26s.9.44 1.27.8c.38.36.67.81.88 1.37.21.55.32 1.21.32 1.98v.63h-7.16v-1.4h5.19c0-.4-.1-.74-.26-1.05-.17-.3-.4-.55-.7-.73-.3-.18-.64-.27-1.03-.27a2 2 0 0 0-1.11.3c-.32.2-.57.47-.74.8a2.3 2.3 0 0 0-.27 1.08v1.2c0 .52.1.95.28 1.31.18.36.44.64.78.83.33.2.72.29 1.16.29.3 0 .58-.04.82-.13.24-.08.45-.21.63-.38.18-.16.31-.37.4-.62l1.92.22c-.12.5-.35.95-.7 1.33-.33.37-.76.67-1.29.87-.52.2-1.13.31-1.8.31Z" fill="#333"/><path d="m242.15 44.9.13-2.3-1.93 1.27-.7-1.2 2.07-1.03-2.06-1.04.7-1.2 1.92 1.26-.13-2.3h1.38l-.12 2.3 1.93-1.26.7 1.2-2.07 1.04 2.06 1.03-.69 1.2-1.93-1.26.12 2.3h-1.38Z" fill="#EE0505"/></svg>
